static/img/kroki/6a61ce2202956c594af554dd9120b0b1.svg

<?xml version="1.0" encoding="us-ascii" standalone="no"?><svg xmlns="http://www.w3.org/2000/svg" xmlns:xlink="http://www.w3.org/1999/xlink" contentStyleType="text/css" height="820px" preserveAspectRatio="none" style="width:387px;height:820px;" version="1.1" viewBox="0 0 387 820" width="387px" zoomAndPan="magnify"><defs/><g><!--class digitalocean_cdn_endpoint--><g id="elem_digitalocean_cdn_endpoint"><rect codeLine="22" fill="#3D176E" height="179.2734" id="digitalocean_cdn_endpoint" rx="2.5" ry="2.5" style="stroke:#000D19;stroke-width:0.5;" width="264" x="87.5" y="633.85"/><ellipse cx="102.5" cy="653.7445" fill="#ADD1B2" rx="11" ry="11" style="stroke:#181818;stroke-width:1.0;"/><path d="M105.4688,659.3852 Q104.8906,659.682 104.25,659.8227 Q103.6094,659.9789 102.9063,659.9789 Q100.4063,659.9789 99.0781,658.3383 Q97.7656,656.682 97.7656,653.557 Q97.7656,650.432 99.0781,648.7758 Q100.4063,647.1195 102.9063,647.1195 Q103.6094,647.1195 104.25,647.2758 Q104.9063,647.432 105.4688,647.7289 L105.4688,650.4477 Q104.8438,649.8695 104.25,649.6039 Q103.6563,649.3227 103.0313,649.3227 Q101.6875,649.3227 101,650.4008 Q100.3125,651.4633 100.3125,653.557 Q100.3125,655.6508 101,656.7289 Q101.6875,657.7914 103.0313,657.7914 Q103.6563,657.7914 104.25,657.5258 Q104.8438,657.2445 105.4688,656.6664 L105.4688,659.3852 Z " fill="#000000"/><text fill="#D9B8FF" font-family="Helvetica" font-size="17" lengthAdjust="spacing" textLength="222" x="121.5" y="659.6298">digitalocean_cdn_endpoint</text><line style="stroke:#000D19;stroke-width:0.5;" x1="88.5" x2="350.5" y1="673.6391" y2="673.6391"/><text fill="#D9B8FF" font-family="sans-serif" font-size="14" font-weight="bold" lengthAdjust="spacing" textLength="101" x="98.5" y="695.6342">certificate_id</text><text fill="#D9B8FF" font-family="sans-serif" font-size="14" lengthAdjust="spacing" textLength="48" x="199.5" y="695.6342">: string</text><text fill="#D9B8FF" font-family="sans-serif" font-size="14" font-weight="bold" lengthAdjust="spacing" textLength="122" x="98.5" y="721.9311">custom_domain</text><text fill="#D9B8FF" font-family="sans-serif" font-size="14" lengthAdjust="spacing" textLength="48" x="220.5" y="721.9311">: string</text><text fill="#D9B8FF" font-family="sans-serif" font-size="14" font-weight="bold" lengthAdjust="spacing" textLength="70" x="98.5" y="748.2279">endpoint</text><text fill="#D9B8FF" font-family="sans-serif" font-size="14" lengthAdjust="spacing" textLength="48" x="168.5" y="748.2279">: string</text><text fill="#D9B8FF" font-family="sans-serif" font-size="14" font-weight="bold" lengthAdjust="spacing" textLength="45" x="98.5" y="774.5248">origin</text><text fill="#D9B8FF" font-family="sans-serif" font-size="14" lengthAdjust="spacing" textLength="48" x="143.5" y="774.5248">: string</text><text fill="#D9B8FF" font-family="sans-serif" font-size="14" font-weight="bold" lengthAdjust="spacing" textLength="16" x="98.5" y="800.8217">ttl</text><text fill="#D9B8FF" font-family="sans-serif" font-size="14" lengthAdjust="spacing" textLength="44" x="114.5" y="800.8217">: int64</text></g><!--class digitalocean_resource--><g id="elem_digitalocean_resource"><rect codeLine="29" fill="#3D176E" height="74.0859" id="digitalocean_resource" rx="2.5" ry="2.5" style="stroke:#000D19;stroke-width:0.5;" width="223" x="7" y="438.76"/><ellipse cx="22" cy="458.6545" fill="#ADD1B2" rx="11" ry="11" style="stroke:#181818;stroke-width:1.0;"/><path d="M24.9688,464.2952 Q24.3906,464.592 23.75,464.7327 Q23.1094,464.8889 22.4063,464.8889 Q19.9063,464.8889 18.5781,463.2483 Q17.2656,461.592 17.2656,458.467 Q17.2656,455.342 18.5781,453.6858 Q19.9063,452.0295 22.4063,452.0295 Q23.1094,452.0295 23.75,452.1858 Q24.4063,452.342 24.9688,452.6389 L24.9688,455.3577 Q24.3438,454.7795 23.75,454.5139 Q23.1563,454.2327 22.5313,454.2327 Q21.1875,454.2327 20.5,455.3108 Q19.8125,456.3733 19.8125,458.467 Q19.8125,460.5608 20.5,461.6389 Q21.1875,462.7014 22.5313,462.7014 Q23.1563,462.7014 23.75,462.4358 Q24.3438,462.1545 24.9688,461.5764 L24.9688,464.2952 Z " fill="#000000"/><text fill="#D9B8FF" font-family="Helvetica" font-size="17" lengthAdjust="spacing" textLength="181" x="41" y="464.5398">digitalocean_resource</text><line style="stroke:#000D19;stroke-width:0.5;" x1="8" x2="229" y1="478.5491" y2="478.5491"/><text fill="#D9B8FF" font-family="sans-serif" font-size="14" font-weight="bold" lengthAdjust="spacing" textLength="27" x="18" y="500.5442">urn</text><text fill="#D9B8FF" font-family="sans-serif" font-size="14" lengthAdjust="spacing" textLength="48" x="45" y="500.5442">: string</text></g><!--class endpoint--><g id="elem_endpoint"><rect codeLine="32" fill="#3D176E" height="39.7891" id="endpoint" rx="2.5" ry="2.5" style="stroke:#000D19;stroke-width:0.5;" width="116" x="264.5" y="455.91"/><ellipse cx="279.5" cy="475.8045" fill="#ADD1B2" rx="11" ry="11" style="stroke:#181818;stroke-width:1.0;"/><path d="M282.4688,481.4452 Q281.8906,481.742 281.25,481.8827 Q280.6094,482.0389 279.9063,482.0389 Q277.4063,482.0389 276.0781,480.3983 Q274.7656,478.742 274.7656,475.617 Q274.7656,472.492 276.0781,470.8358 Q277.4063,469.1795 279.9063,469.1795 Q280.6094,469.1795 281.25,469.3358 Q281.9063,469.492 282.4688,469.7889 L282.4688,472.5077 Q281.8438,471.9295 281.25,471.6639 Q280.6563,471.3827 280.0313,471.3827 Q278.6875,471.3827 278,472.4608 Q277.3125,473.5233 277.3125,475.617 Q277.3125,477.7108 278,478.7889 Q278.6875,479.8514 280.0313,479.8514 Q280.6563,479.8514 281.25,479.5858 Q281.8438,479.3045 282.4688,478.7264 L282.4688,481.4452 Z " fill="#000000"/><text fill="#D9B8FF" font-family="Helvetica" font-size="17" lengthAdjust="spacing" textLength="74" x="298.5" y="481.6898">endpoint</text></g><!--class resource--><g id="elem_resource"><rect codeLine="34" fill="#3D176E" height="310.7578" id="resource" rx="2.5" ry="2.5" style="stroke:#000D19;stroke-width:0.5;" width="227" x="106" y="7"/><ellipse cx="174.75" cy="26.8945" fill="#ADD1B2" rx="11" ry="11" style="stroke:#181818;stroke-width:1.0;"/><path d="M177.7188,32.5352 Q177.1406,32.832 176.5,32.9727 Q175.8594,33.1289 175.1563,33.1289 Q172.6563,33.1289 171.3281,31.4883 Q170.0156,29.832 170.0156,26.707 Q170.0156,23.582 171.3281,21.9258 Q172.6563,20.2695 175.1563,20.2695 Q175.8594,20.2695 176.5,20.4258 Q177.1563,20.582 177.7188,20.8789 L177.7188,23.5977 Q177.0938,23.0195 176.5,22.7539 Q175.9063,22.4727 175.2813,22.4727 Q173.9375,22.4727 173.25,23.5508 Q172.5625,24.6133 172.5625,26.707 Q172.5625,28.8008 173.25,29.8789 Q173.9375,30.9414 175.2813,30.9414 Q175.9063,30.9414 176.5,30.6758 Q177.0938,30.3945 177.7188,29.8164 L177.7188,32.5352 Z " fill="#000000"/><text fill="#D9B8FF" font-family="Helvetica" font-size="17" lengthAdjust="spacing" textLength="71" x="200.25" y="32.7798">resource</text><line style="stroke:#000D19;stroke-width:0.5;" x1="107" x2="332" y1="46.7891" y2="46.7891"/><text fill="#D9B8FF" font-family="sans-serif" font-size="14" font-weight="bold" lengthAdjust="spacing" textLength="29" x="117" y="68.7842">age</text><text fill="#D9B8FF" font-family="sans-serif" font-size="14" lengthAdjust="spacing" textLength="66" x="146" y="68.7842">: duration</text><text fill="#D9B8FF" font-family="sans-serif" font-size="14" font-weight="bold" lengthAdjust="spacing" textLength="43" x="117" y="95.0811">atime</text><text fill="#D9B8FF" font-family="sans-serif" font-size="14" lengthAdjust="spacing" textLength="70" x="160" y="95.0811">: datetime</text><text fill="#D9B8FF" font-family="sans-serif" font-size="14" font-weight="bold" lengthAdjust="spacing" textLength="43" x="117" y="121.3779">ctime</text><text fill="#D9B8FF" font-family="sans-serif" font-size="14" lengthAdjust="spacing" textLength="70" x="160" y="121.3779">: datetime</text><text fill="#D9B8FF" font-family="sans-serif" font-size="14" font-weight="bold" lengthAdjust="spacing" textLength="14" x="117" y="147.6748">id</text><text fill="#D9B8FF" font-family="sans-serif" font-size="14" lengthAdjust="spacing" textLength="48" x="131" y="147.6748">: string</text><text fill="#D9B8FF" font-family="sans-serif" font-size="14" font-weight="bold" lengthAdjust="spacing" textLength="33" x="117" y="173.9717">kind</text><text fill="#D9B8FF" font-family="sans-serif" font-size="14" lengthAdjust="spacing" textLength="48" x="150" y="173.9717">: string</text><text fill="#D9B8FF" font-family="sans-serif" font-size="14" font-weight="bold" lengthAdjust="spacing" textLength="90" x="117" y="200.2686">last_access</text><text fill="#D9B8FF" font-family="sans-serif" font-size="14" lengthAdjust="spacing" textLength="66" x="207" y="200.2686">: duration</text><text fill="#D9B8FF" font-family="sans-serif" font-size="14" font-weight="bold" lengthAdjust="spacing" textLength="90" x="117" y="226.5654">last_update</text><text fill="#D9B8FF" font-family="sans-serif" font-size="14" lengthAdjust="spacing" textLength="66" x="207" y="226.5654">: duration</text><text fill="#D9B8FF" font-family="sans-serif" font-size="14" font-weight="bold" lengthAdjust="spacing" textLength="48" x="117" y="252.8623">mtime</text><text fill="#D9B8FF" font-family="sans-serif" font-size="14" lengthAdjust="spacing" textLength="70" x="165" y="252.8623">: datetime</text><text fill="#D9B8FF" font-family="sans-serif" font-size="14" font-weight="bold" lengthAdjust="spacing" textLength="43" x="117" y="279.1592">name</text><text fill="#D9B8FF" font-family="sans-serif" font-size="14" lengthAdjust="spacing" textLength="48" x="160" y="279.1592">: string</text><text fill="#D9B8FF" font-family="sans-serif" font-size="14" font-weight="bold" lengthAdjust="spacing" textLength="34" x="117" y="305.4561">tags</text><text fill="#D9B8FF" font-family="sans-serif" font-size="14" lengthAdjust="spacing" textLength="171" x="151" y="305.4561">: dictionary[string, string]</text></g><!--reverse link digitalocean_resource to digitalocean_cdn_endpoint--><g id="link_digitalocean_resource_digitalocean_cdn_endpoint"><path codeLine="46" d="M141.43,532.59 C153.68,562.37 169.04,599.74 182.89,633.43 " fill="none" id="digitalocean_resource-backto-digitalocean_cdn_endpoint" style="stroke:#FFAF37;stroke-width:2.0;"/><polygon fill="none" points="134.64,535.48,133.51,514.32,147.59,530.16,134.64,535.48" style="stroke:#FFAF37;stroke-width:2.0;"/></g><!--reverse link endpoint to digitalocean_cdn_endpoint--><g id="link_endpoint_digitalocean_cdn_endpoint"><path codeLine="47" d="M306.3,515.43 C293.05,547.05 273.78,593.01 256.76,633.6 " fill="none" id="endpoint-backto-digitalocean_cdn_endpoint" style="stroke:#FFAF37;stroke-width:2.0;"/><polygon fill="none" points="300.23,512.82,314.42,497.08,313.14,518.23,300.23,512.82" style="stroke:#FFAF37;stroke-width:2.0;"/></g><!--reverse link resource to digitalocean_resource--><g id="link_resource_digitalocean_resource"><path codeLine="48" d="M162.89,337.93 C150.51,376.11 138.62,412.77 130.27,438.52 " fill="none" id="resource-backto-digitalocean_resource" style="stroke:#FFAF37;stroke-width:2.0;"/><polygon fill="none" points="156.47,336.05,169.3,319.18,169.78,340.36,156.47,336.05" style="stroke:#FFAF37;stroke-width:2.0;"/></g><!--reverse link resource to endpoint--><g id="link_resource_endpoint"><path codeLine="49" d="M277.25,337.99 C293.03,385.71 308.02,431.02 316.17,455.65 " fill="none" id="resource-backto-endpoint" style="stroke:#FFAF37;stroke-width:2.0;"/><polygon fill="none" points="270.33,340.37,270.7,319.18,283.62,335.97,270.33,340.37" style="stroke:#FFAF37;stroke-width:2.0;"/></g><!--SRC=[XPDFRzim3CNl-HG2UWiQ85ctfXbsQGCKwwKerjs6mM0asX5YIGP5hqYtVVT9STt9VvBSxFT-91zfUAiL2ZGLxuL1iq7o4x_JjW828sw9tClQbOx4HPv3VhNic_VEybdW4GoAhrZ-GjOI-iJthPOxYzwB3ubr1t9NaAkjQjepWVN1Gii9jIx1-rjcqfkQCGcZLfkRFE-J_QONLsgnlCO1vaWXlI7p-LmjLdtaxAYJUxyJp_eLnI8zsgDZ7CGSZ3XG9rD68WavMBJrZsPy0gMqBSIdHFlMP2ABrD6Vjw3SIwHpA7qwnZCIEjvNk1viXQiRbIz7uOTZi8oN4qeNcg5q4i5cKjaChQgSjYn-JwPJYSGw3zimPbfDfvz3OmhXebLxTYPJpe2s7QVjq14TXK5TZhcCxu6y_ZZvEvQ7qBkQ91wor9IMjtmIjvKwLL1Wh58r0MjdeyBQD5hOAZx7PKQqthxXj5qXpE8Cf0o_Ms_2mQchsAldc94v5Xhf_rsWQ3fg6Sk0zZyQx_AD-HbM7R_Jbp-psUpuDvsyN-iSUAfZw_MXjlWV]--></g></svg>

<svg xmlns="http://www.w3.org/2000/svg" width="387" height="820" preserveAspectRatio="none" style="width:387px;height:820px"><rect width="264" height="179.273" x="87.5" y="633.85" fill="#3D176E" rx="2.5" ry="2.5" style="stroke:#000d19;stroke-width:.5"/><circle cx="102.5" cy="653.745" r="11" fill="#ADD1B2" style="stroke:#181818;stroke-width:1"/><path d="M105.469 659.385q-.578.297-1.219.438-.64.156-1.344.156-2.5 0-3.828-1.64-1.312-1.657-1.312-4.782t1.312-4.781q1.328-1.656 3.828-1.656.703 0 1.344.156.656.156 1.219.453v2.719q-.625-.578-1.219-.844-.594-.281-1.219-.281-1.344 0-2.031 1.078-.688 1.062-.688 3.156 0 2.094.688 3.172.688 1.062 2.031 1.062.625 0 1.219-.265.594-.281 1.219-.86v2.72Z"/><text x="121.5" y="659.63" fill="#D9B8FF" font-family="Helvetica" font-size="17" textLength="222">digitalocean_cdn_endpoint</text><path d="M88.5 673.639h262" style="stroke:#000d19;stroke-width:.5"/><text x="98.5" y="695.634" fill="#D9B8FF" font-family="sans-serif" font-size="14" font-weight="bold" textLength="101">certificate_id</text><text x="199.5" y="695.634" fill="#D9B8FF" font-family="sans-serif" font-size="14" textLength="48">: string</text><text x="98.5" y="721.931" fill="#D9B8FF" font-family="sans-serif" font-size="14" font-weight="bold" textLength="122">custom_domain</text><text x="220.5" y="721.931" fill="#D9B8FF" font-family="sans-serif" font-size="14" textLength="48">: string</text><text x="98.5" y="748.228" fill="#D9B8FF" font-family="sans-serif" font-size="14" font-weight="bold" textLength="70">endpoint</text><text x="168.5" y="748.228" fill="#D9B8FF" font-family="sans-serif" font-size="14" textLength="48">: string</text><text x="98.5" y="774.525" fill="#D9B8FF" font-family="sans-serif" font-size="14" font-weight="bold" textLength="45">origin</text><text x="143.5" y="774.525" fill="#D9B8FF" font-family="sans-serif" font-size="14" textLength="48">: string</text><text x="98.5" y="800.822" fill="#D9B8FF" font-family="sans-serif" font-size="14" font-weight="bold" textLength="16">ttl</text><text x="114.5" y="800.822" fill="#D9B8FF" font-family="sans-serif" font-size="14" textLength="44">: int64</text><rect width="223" height="74.086" x="7" y="438.76" fill="#3D176E" rx="2.5" ry="2.5" style="stroke:#000d19;stroke-width:.5"/><circle cx="22" cy="458.654" r="11" fill="#ADD1B2" style="stroke:#181818;stroke-width:1"/><path d="M24.969 464.295q-.578.297-1.219.438-.64.156-1.344.156-2.5 0-3.828-1.64-1.312-1.657-1.312-4.782t1.312-4.781q1.328-1.656 3.828-1.656.703 0 1.344.156.656.156 1.219.453v2.719q-.625-.579-1.219-.844-.594-.281-1.219-.281-1.343 0-2.031 1.078-.688 1.062-.688 3.156 0 2.094.688 3.172.688 1.062 2.031 1.062.625 0 1.219-.265.594-.281 1.219-.86v2.72Z"/><text x="41" y="464.54" fill="#D9B8FF" font-family="Helvetica" font-size="17" textLength="181">digitalocean_resource</text><path d="M8 478.549h221" style="stroke:#000d19;stroke-width:.5"/><text x="18" y="500.544" fill="#D9B8FF" font-family="sans-serif" font-size="14" font-weight="bold" textLength="27">urn</text><text x="45" y="500.544" fill="#D9B8FF" font-family="sans-serif" font-size="14" textLength="48">: string</text><rect width="116" height="39.789" x="264.5" y="455.91" fill="#3D176E" rx="2.5" ry="2.5" style="stroke:#000d19;stroke-width:.5"/><circle cx="279.5" cy="475.805" r="11" fill="#ADD1B2" style="stroke:#181818;stroke-width:1"/><path d="M282.469 481.445q-.578.297-1.219.438-.64.156-1.344.156-2.5 0-3.828-1.64-1.312-1.657-1.312-4.782t1.312-4.781q1.328-1.656 3.828-1.656.703 0 1.344.156.656.156 1.219.453v2.719q-.625-.578-1.219-.844-.594-.281-1.219-.281-1.344 0-2.031 1.078-.688 1.062-.688 3.156 0 2.094.688 3.172.688 1.062 2.031 1.062.625 0 1.219-.265.594-.281 1.219-.86v2.72Z"/><text x="298.5" y="481.69" fill="#D9B8FF" font-family="Helvetica" font-size="17" textLength="74">endpoint</text><rect width="227" height="310.758" x="106" y="7" fill="#3D176E" rx="2.5" ry="2.5" style="stroke:#000d19;stroke-width:.5"/><circle cx="174.75" cy="26.895" r="11" fill="#ADD1B2" style="stroke:#181818;stroke-width:1"/><path d="M177.719 32.535q-.578.297-1.219.438-.64.156-1.344.156-2.5 0-3.828-1.64-1.312-1.657-1.312-4.782t1.312-4.781q1.328-1.656 3.828-1.656.703 0 1.344.156.656.156 1.219.453v2.719q-.625-.578-1.219-.844-.594-.281-1.219-.281-1.344 0-2.031 1.078-.688 1.062-.688 3.156 0 2.094.688 3.172.688 1.062 2.031 1.062.625 0 1.219-.265.594-.281 1.219-.86v2.72Z"/><text x="200.25" y="32.78" fill="#D9B8FF" font-family="Helvetica" font-size="17" textLength="71">resource</text><path d="M107 46.789h225" style="stroke:#000d19;stroke-width:.5"/><text x="117" y="68.784" fill="#D9B8FF" font-family="sans-serif" font-size="14" font-weight="bold" textLength="29">age</text><text x="146" y="68.784" fill="#D9B8FF" font-family="sans-serif" font-size="14" textLength="66">: duration</text><text x="117" y="95.081" fill="#D9B8FF" font-family="sans-serif" font-size="14" font-weight="bold" textLength="43">atime</text><text x="160" y="95.081" fill="#D9B8FF" font-family="sans-serif" font-size="14" textLength="70">: datetime</text><text x="117" y="121.378" fill="#D9B8FF" font-family="sans-serif" font-size="14" font-weight="bold" textLength="43">ctime</text><text x="160" y="121.378" fill="#D9B8FF" font-family="sans-serif" font-size="14" textLength="70">: datetime</text><text x="117" y="147.675" fill="#D9B8FF" font-family="sans-serif" font-size="14" font-weight="bold" textLength="14">id</text><text x="131" y="147.675" fill="#D9B8FF" font-family="sans-serif" font-size="14" textLength="48">: string</text><text x="117" y="173.972" fill="#D9B8FF" font-family="sans-serif" font-size="14" font-weight="bold" textLength="33">kind</text><text x="150" y="173.972" fill="#D9B8FF" font-family="sans-serif" font-size="14" textLength="48">: string</text><text x="117" y="200.269" fill="#D9B8FF" font-family="sans-serif" font-size="14" font-weight="bold" textLength="90">last_access</text><text x="207" y="200.269" fill="#D9B8FF" font-family="sans-serif" font-size="14" textLength="66">: duration</text><text x="117" y="226.565" fill="#D9B8FF" font-family="sans-serif" font-size="14" font-weight="bold" textLength="90">last_update</text><text x="207" y="226.565" fill="#D9B8FF" font-family="sans-serif" font-size="14" textLength="66">: duration</text><text x="117" y="252.862" fill="#D9B8FF" font-family="sans-serif" font-size="14" font-weight="bold" textLength="48">mtime</text><text x="165" y="252.862" fill="#D9B8FF" font-family="sans-serif" font-size="14" textLength="70">: datetime</text><text x="117" y="279.159" fill="#D9B8FF" font-family="sans-serif" font-size="14" font-weight="bold" textLength="43">name</text><text x="160" y="279.159" fill="#D9B8FF" font-family="sans-serif" font-size="14" textLength="48">: string</text><text x="117" y="305.456" fill="#D9B8FF" font-family="sans-serif" font-size="14" font-weight="bold" textLength="34">tags</text><text x="151" y="305.456" fill="#D9B8FF" font-family="sans-serif" font-size="14" textLength="171">: dictionary[string, string]</text><g fill="none"><path d="M141.43 532.59c12.25 29.78 27.61 67.15 41.46 100.84" style="stroke:#ffaf37;stroke-width:2"/><path d="m134.64 535.48-1.13-21.16 14.08 15.84-12.95 5.32z" style="stroke:#ffaf37;stroke-width:2"/></g><path fill="none" d="M306.3 515.43c-13.25 31.62-32.52 77.58-49.54 118.17m43.47-120.78 14.19-15.74-1.28 21.15-12.91-5.41z" style="stroke:#ffaf37;stroke-width:2"/><g fill="none"><path d="M162.89 337.93c-12.38 38.18-24.27 74.84-32.62 100.59" style="stroke:#ffaf37;stroke-width:2"/><path d="m156.47 336.05 12.83-16.87.48 21.18-13.31-4.31z" style="stroke:#ffaf37;stroke-width:2"/></g><g fill="none"><path d="M277.25 337.99c15.78 47.72 30.77 93.03 38.92 117.66" style="stroke:#ffaf37;stroke-width:2"/><path d="m270.33 340.37.37-21.19 12.92 16.79-13.29 4.4z" style="stroke:#ffaf37;stroke-width:2"/></g></svg>
